TCanvas/fit1.svg

<svg xmlns="http://www.w3.org/2000/svg" viewBox="0 0 1200 800" preserveAspectRatio="none" width="1200" height="800">
 <path d="M0,0H1200V800H0Z" style="fill: white;"></path>
 <g>
  <g transform="translate(120,80)">
   <path d="M0,0H960V640H0Z" style="fill: white; stroke: black; stroke-width: 1;"></path>
   <g>
    <path d="M0,0v640M96,0v640M192,0v640M288,0v640M384,0v640M480,0v640M576,0v640M672,0v640M768,0v640M864,0v640M960,0v640" style="stroke: black; stroke-width: 1; stroke-dasharray: 1,2;"></path>
    <path d="M0,640h960M0,569h960M0,497h960M0,426h960M0,355h960M0,284h960M0,212h960M0,141h960M0,70h960" style="stroke: black; stroke-width: 1; stroke-dasharray: 1,2;"></path>
   </g>
   <svg x="0" y="0" overflow="hidden" width="960" height="640" viewBox="0 0 960 640">
    <g>
     <path d="M0,405h5v10h5v-10h4v-47h5v40h5v60h5v-64h5v68h4v-61h10v25h10v11h4v-7h5v64h5v-89h5v43h5v-33h4v54h5v-54h5v-28h5v57h5v-18h4v25h5v36h5v-22h5v18h5v-7h4v-25h5v18h5v-21h5v71h5v-61h4v7h5v7h5v40h5v-7h5v-4h4v-21h5v46h5v-36h5v54h5v-18h4v-39h5v28h5v-39h5v18h5v11h4v46h5v-18h5v-61h5v11h5v-39h4v75h5v-64h5v3h10v-28h4v32h5v-104h5v75h5v-25h5v7h4v-53h5v-32h5v-61h5v50h5v-43h4v8h5v-18h5v-43h5v-7h5v3h4v-39h5v-7h5v-4h5v40h5v-143h4v57h5v39h5v7h5v-35h5v-82h4v-22h5v79h5v-25h5v75h5v-89h4v21h5v-3h5v-54h5v132h5v36h4v-8h5v15h5v-32h5v28h5v-32h4v54h5v71h5v-71h5v67h5v-46h4v93h5v-50h5v53h5v-7h5v-28h4v89h5v28h5v-18h5v7h5v54h4v-7h5v14h5v-18h5v61h5v14h4v-68h5v47h5v10h5v43h5v-32h4v29h5v14h5v28h5v-10h5v-11h4v7h10v18h5v-7h5v-4h4v11h5v-11h5v-25h5v32h5v15h4v-11h5v-21h5v28h5v-18h5v14h4v-3h5v21h5v-18h5v-3h5v-25h4v36h5v3h5v-25h5v14h5v-3h4v7h5v-7h5v-11h5v14h5v4h4v-14h5v7h5v-4h5v18h5v-14h9v21h5v-14h5v-18h5v7h4v15h5v7h5v-11h5v7h5v-11h4v15h5v-7h5v10h10v-21h4v7h5v18h5v-7h5v3h5v7h4v-3h5v3h5v-3h5v7h14v-7h5v7h10v-11h4v4h5v3h5v-10h5v7h5v7h4v-11h5v-14h5L960,643H0Z" style="stroke-linejoin: miter; stroke: #00009a; stroke-width: 1; fill: #c08378;"></path>
    </g>
    <g>
     <path d="M9.6,414.22C11.18,414.4,16.08,414.85,19.2,415.34S25.76,416.49,28.8,417.19S35.47,418.88,38.4,419.77S45.2,421.99,48,423.05S54.93,425.81,57.6,427S64.66,430.28,67.2,431.58S74.38,435.37,76.8,436.74S84.08,441,86.4,442.43S93.77,447.11,96,448.58S103.44,453.61,105.6,455.11S113.09,460.39,115.2,461.91S122.7,467.34,124.8,468.86S132.29,474.32,134.4,475.84S141.84,481.17,144,482.67S151.35,487.71,153.6,489.17S160.81,493.76,163.2,495.15S170.22,499.1,172.8,500.37S179.59,503.54,182.4,504.59S188.96,506.85,192,507.54S198.41,508.83,201.6,508.96S208.04,508.93,211.2,508.57S217.99,507.18,220.8,506.13S228.09,502.84,230.4,501.4S238.21,495.78,240,494.19S248.24,485.95,249.6,484.37S258.16,473.37,259.2,471.87S267.98,458.12,268.8,456.72S277.74,440.34,278.4,439.04S287.45,420.27,288,419.06S297.24,398.13,297.6,397.12S306.97,366.24,307.2,365.42S316.6,328.41,316.8,327.64S326.19,291.34,326.4,290.55S335.77,255.7,336,254.88S345.34,222.29,345.6,221.41S354.88,191.88,355.2,190.92S364.38,165.23,364.8,164.14S373.8,143.02,374.4,141.76S383.04,125.81,384,124.35S391.92,113.94,393.6,112.34S400.05,106.43,403.2,106.03S409.62,105.26,412.8,105.54S420.52,109.24,422.4,110.82S430.92,120.12,432,121.64S440.91,136.31,441.6,137.63S450.71,157.1,451.2,158.25S460.42,181.86,460.8,182.89S470.09,209.87,470.4,210.82S479.73,240.37,480,241.27S489.35,272.59,489.6,273.46S498.95,305.77,499.2,306.62S508.55,339.19,508.8,340.04S518.14,372.19,518.4,373.06S527.73,404.22,528,405.12S537.3,434.8,537.6,435.74S546.86,463.57,547.2,464.56S556.41,490.27,556.8,491.32S565.94,514.72,566.4,515.85S575.45,536.86,576,538.07S584.94,556.68,585.6,557.98S594.35,574.23,595.2,575.64S603.33,588.36,604.8,589.95S612.04,595.03,614.4,596.44S621.33,600.19,624,601.38S630.7,604.07,633.6,605S640.15,606.87,643.2,607.54S649.66,608.76,652.8,609.19S659.22,609.92,662.4,610.16S668.8,610.53,672,610.63S678.4,610.74,681.6,610.74S688,610.69,691.2,610.64S697.6,610.51,700.8,610.44S707.2,610.29,710.4,610.23S716.8,610.1,720,610.08S726.4,610.03,729.6,610.05S736,610.1,739.2,610.18S745.61,610.35,748.8,610.5S755.21,610.81,758.4,611.03S764.83,611.49,768,611.78S774.44,612.4,777.6,612.75S784.06,613.52,787.2,613.94S793.68,614.86,796.8,615.35S803.3,616.4,806.4,616.94S812.92,618.13,816,618.73S822.53,620.03,825.6,620.67S832.15,622.07,835.2,622.75S841.77,624.25,844.8,624.96S851.38,626.53,854.4,627.26S860.99,628.89,864,629.64S870.59,631.3,873.6,632.07S880.2,633.75,883.2,634.52S889.79,636.21,892.8,636.97S899.21,639.2,902.4,639.4S908.9,638.78,912,638.21S918.57,636.61,921.6,635.89S928.16,634.35,931.2,633.66S937.74,632.2,940.8,631.54S947.32,630.16,950.4,629.55S958.46,627.99,960,627.7" style="fill: none; stroke: blue; stroke-width: 6;"></path>
    </g>
   </svg>
   <g>
    <g transform="translate(0,640)">
     <path d="M0,0h960M0,-24v24m19,-12v12m19,-12v12m20,-12v12m19,-12v12m19,-24v24m19,-12v12m19,-12v12m20,-12v12m19,-12v12m19,-24v24m19,-12v12m19,-12v12m20,-12v12m19,-12v12m19,-24v24m19,-12v12m19,-12v12m20,-12v12m19,-12v12m19,-24v24m19,-12v12m19,-12v12m20,-12v12m19,-12v12m19,-24v24m19,-12v12m19,-12v12m20,-12v12m19,-12v12m19,-24v24m19,-12v12m19,-12v12m20,-12v12m19,-12v12m19,-24v24m19,-12v12m19,-12v12m20,-12v12m19,-12v12m19,-24v24m19,-12v12m19,-12v12m20,-12v12m19,-12v12m19,-24v24m19,-12v12m19,-12v12m20,-12v12m19,-12v12m19,-24v24" style="stroke: black; stroke-width: 1;"></path>
     <g font-family="Arial" font-size="28" space="preserve" fill="black" text-anchor="middle">
      <text dy=".8em" transform="translate(0,6)">
       0
      </text>
      <text dy=".8em" transform="translate(96,6)">
       1
      </text>
      <text dy=".8em" transform="translate(192,6)">
       2
      </text>
      <text dy=".8em" transform="translate(288,6)">
       3
      </text>
      <text dy=".8em" transform="translate(384,6)">
       4
      </text>
      <text dy=".8em" transform="translate(480,6)">
       5
      </text>
      <text dy=".8em" transform="translate(576,6)">
       6
      </text>
      <text dy=".8em" transform="translate(672,6)">
       7
      </text>
      <text dy=".8em" transform="translate(768,6)">
       8
      </text>
      <text dy=".8em" transform="translate(864,6)">
       9
      </text>
      <text dy=".8em" transform="translate(960,6)">
       10
      </text>
     </g>
    </g>
    <g>
     <path d="M0,0v640M36,640h-36m18,-18h-18m18,-18h-18m18,-17h-18m36,-18h-36m18,-18h-18m18,-18h-18m18,-18h-18m36,-18h-36m18,-17h-18m18,-18h-18m18,-18h-18m36,-18h-36m18,-18h-18m18,-18h-18m18,-17h-18m36,-18h-36m18,-18h-18m18,-18h-18m18,-18h-18m36,-17h-36m18,-18h-18m18,-18h-18m18,-18h-18m36,-18h-36m18,-18h-18m18,-17h-18m18,-18h-18m36,-18h-36m18,-18h-18m18,-18h-18m18,-17h-18m36,-18h-36m18,-18h-18m18,-18h-18m18,-18h-18" style="stroke: black; stroke-width: 1;"></path>
     <g font-family="Arial" font-size="28" space="preserve" fill="black" text-anchor="end">
      <text dy=".4em" transform="translate(-4,640)">
       0
      </text>
      <text dy=".4em" transform="translate(-4,569)">
       20
      </text>
      <text dy=".4em" transform="translate(-4,497)">
       40
      </text>
      <text dy=".4em" transform="translate(-4,426)">
       60
      </text>
      <text dy=".4em" transform="translate(-4,355)">
       80
      </text>
      <text dy=".4em" transform="translate(-4,284)">
       100
      </text>
      <text dy=".4em" transform="translate(-4,212)">
       120
      </text>
      <text dy=".4em" transform="translate(-4,141)">
       140
      </text>
      <text dy=".4em" transform="translate(-4,70)">
       160
      </text>
     </g>
    </g>
   </g>
  </g>
  <g transform="translate(936,52)" font-family="Arial" font-size="25" space="preserve" fill="black">
   <path d="M0,0H240V128H0Z" style="fill: white; stroke: black; stroke-width: 1;"></path>
   <text text-anchor="middle" dy=".4em" transform="translate(120,16)">
    h1f
   </text>
   <text text-anchor="start" dy=".4em" transform="translate(12,48)">
    Entries
   </text>
   <text text-anchor="end" dy=".4em" transform="translate(228,48)">
    10000
   </text>
   <text text-anchor="start" dy=".4em" transform="translate(12,80)">
    Mean
   </text>
   <text text-anchor="end" dy=".4em" transform="translate(228,80)">
    3.646
   </text>
   <text text-anchor="start" dy=".4em" transform="translate(12,112)">
    Std Dev
   </text>
   <text text-anchor="end" dy=".4em" transform="translate(228,112)">
    1.840
   </text>
   <path d="M0,32h240" style="stroke: black; stroke-width: 1;"></path>
  </g>
  <g transform="translate(720,200)" font-family="Arial" font-size="10" space="preserve" font-weight="bold" fill="black" text-anchor="start">
   <path d="M4,4v280h360v-280z" style="fill: black; stroke: black; stroke-width: 1px;"></path>
   <path d="M0,0H360V280H0Z" style="fill: #dfbb88; stroke: black; stroke-width: 1;"></path>
   <text dy=".4em" transform="translate(18,11)">
    TCanvas * c1 = new TCanvas("c1","Canvas");
   </text>
   <text dy=".4em" transform="translate(18,32)">
    c1-&gt;SetGridx();
   </text>
   <text dy=".4em" transform="translate(18,54)">
    c1-&gt;SetGridy();
   </text>
   <text dy=".4em" transform="translate(18,75)">
    TFile * file = new TFile("fillrandom.root");
   </text>
   <text dy=".4em" transform="translate(18,97)">
    file-&gt;ls();
   </text>
   <text dy=".4em" transform="translate(18,118)">
    TF1 * sqroot = 0;
   </text>
   <text dy=".4em" transform="translate(18,140)">
    file-&gt;GetObject("sqroot",sqroot);
   </text>
   <text dy=".4em" transform="translate(18,162)">
    sqroot-&gt;Print();
   </text>
   <text dy=".4em" transform="translate(18,183)"></text>
   <text dy=".4em" transform="translate(18,205)">
    TH1 * h1f = 0;
   </text>
   <text dy=".4em" transform="translate(18,226)">
    file-&gt;GetObject("h1f",h1f);
   </text>
   <text dy=".4em" transform="translate(18,248)"></text>
   <text dy=".4em" transform="translate(18,269)">
    h1f-&gt;Fit("sqroot");
   </text>
  </g>
  <g transform="translate(371,4)" font-family="Arial" font-size="36" space="preserve">
   <text fill="black" text-anchor="middle" dy=".4em" transform="translate(229,22)">
    Test random numbers
   </text>
  </g>
 </g>
</svg>

<svg xmlns="http://www.w3.org/2000/svg" viewBox="0 0 1200 800" preserveAspectRatio="none" width="1200" height="800">
 <path d="M0,0H1200V800H0Z" style="fill: white;"></path>
 <g>
  <g transform="translate(120,80)">
   <path d="M0,0H960V640H0Z" style="fill: white; stroke: black; stroke-width: 1;"></path>
   <g>
    <path d="M0,0v640M96,0v640M192,0v640M288,0v640M384,0v640M480,0v640M576,0v640M672,0v640M768,0v640M864,0v640M960,0v640" style="stroke: black; stroke-width: 1; stroke-dasharray: 1,2;"></path>
    <path d="M0,640h960M0,569h960M0,497h960M0,426h960M0,355h960M0,284h960M0,212h960M0,141h960M0,70h960" style="stroke: black; stroke-width: 1; stroke-dasharray: 1,2;"></path>
   </g>
   <svg x="0" y="0" overflow="hidden" width="960" height="640" viewBox="0 0 960 640">
    <g>
     <path d="M0,405h5v10h5v-10h4v-47h5v40h5v60h5v-64h5v68h4v-61h10v25h10v11h4v-7h5v64h5v-89h5v43h5v-33h4v54h5v-54h5v-28h5v57h5v-18h4v25h5v36h5v-22h5v18h5v-7h4v-25h5v18h5v-21h5v71h5v-61h4v7h5v7h5v40h5v-7h5v-4h4v-21h5v46h5v-36h5v54h5v-18h4v-39h5v28h5v-39h5v18h5v11h4v46h5v-18h5v-61h5v11h5v-39h4v75h5v-64h5v3h10v-28h4v32h5v-104h5v75h5v-25h5v7h4v-53h5v-32h5v-61h5v50h5v-43h4v8h5v-18h5v-43h5v-7h5v3h4v-39h5v-7h5v-4h5v40h5v-143h4v57h5v39h5v7h5v-35h5v-82h4v-22h5v79h5v-25h5v75h5v-89h4v21h5v-3h5v-54h5v132h5v36h4v-8h5v15h5v-32h5v28h5v-32h4v54h5v71h5v-71h5v67h5v-46h4v93h5v-50h5v53h5v-7h5v-28h4v89h5v28h5v-18h5v7h5v54h4v-7h5v14h5v-18h5v61h5v14h4v-68h5v47h5v10h5v43h5v-32h4v29h5v14h5v28h5v-10h5v-11h4v7h10v18h5v-7h5v-4h4v11h5v-11h5v-25h5v32h5v15h4v-11h5v-21h5v28h5v-18h5v14h4v-3h5v21h5v-18h5v-3h5v-25h4v36h5v3h5v-25h5v14h5v-3h4v7h5v-7h5v-11h5v14h5v4h4v-14h5v7h5v-4h5v18h5v-14h9v21h5v-14h5v-18h5v7h4v15h5v7h5v-11h5v7h5v-11h4v15h5v-7h5v10h10v-21h4v7h5v18h5v-7h5v3h5v7h4v-3h5v3h5v-3h5v7h14v-7h5v7h10v-11h4v4h5v3h5v-10h5v7h5v7h4v-11h5v-14h5L960,643H0Z" style="stroke-linejoin: miter; stroke: #00009a; stroke-width: 1; fill: #c08378;"></path>
    </g>
    <g>
     <path d="M9.6,414.22C11.18,414.4,16.08,414.85,19.2,415.34S25.76,416.49,28.8,417.19S35.47,418.88,38.4,419.77S45.2,421.99,48,423.05S54.93,425.81,57.6,427S64.66,430.28,67.2,431.58S74.38,435.37,76.8,436.74S84.08,441,86.4,442.43S93.77,447.11,96,448.58S103.44,453.61,105.6,455.11S113.09,460.39,115.2,461.91S122.7,467.34,124.8,468.86S132.29,474.32,134.4,475.84S141.84,481.17,144,482.67S151.35,487.71,153.6,489.17S160.81,493.76,163.2,495.15S170.22,499.1,172.8,500.37S179.59,503.54,182.4,504.59S188.96,506.85,192,507.54S198.41,508.83,201.6,508.96S208.04,508.93,211.2,508.57S217.99,507.18,220.8,506.13S228.09,502.84,230.4,501.4S238.21,495.78,240,494.19S248.24,485.95,249.6,484.37S258.16,473.37,259.2,471.87S267.98,458.12,268.8,456.72S277.74,440.34,278.4,439.04S287.45,420.27,288,419.06S297.24,398.13,297.6,397.12S306.97,366.24,307.2,365.42S316.6,328.41,316.8,327.64S326.19,291.34,326.4,290.55S335.77,255.7,336,254.88S345.34,222.29,345.6,221.41S354.88,191.88,355.2,190.92S364.38,165.23,364.8,164.14S373.8,143.02,374.4,141.76S383.04,125.81,384,124.35S391.92,113.94,393.6,112.34S400.05,106.43,403.2,106.03S409.62,105.26,412.8,105.54S420.52,109.24,422.4,110.82S430.92,120.12,432,121.64S440.91,136.31,441.6,137.63S450.71,157.1,451.2,158.25S460.42,181.86,460.8,182.89S470.09,209.87,470.4,210.82S479.73,240.37,480,241.27S489.35,272.59,489.6,273.46S498.95,305.77,499.2,306.62S508.55,339.19,508.8,340.04S518.14,372.19,518.4,373.06S527.73,404.22,528,405.12S537.3,434.8,537.6,435.74S546.86,463.57,547.2,464.56S556.41,490.27,556.8,491.32S565.94,514.72,566.4,515.85S575.45,536.86,576,538.07S584.94,556.68,585.6,557.98S594.35,574.23,595.2,575.64S603.33,588.36,604.8,589.95S612.04,595.03,614.4,596.44S621.33,600.19,624,601.38S630.7,604.07,633.6,605S640.15,606.87,643.2,607.54S649.66,608.76,652.8,609.19S659.22,609.92,662.4,610.16S668.8,610.53,672,610.63S678.4,610.74,681.6,610.74S688,610.69,691.2,610.64S697.6,610.51,700.8,610.44S707.2,610.29,710.4,610.23S716.8,610.1,720,610.08S726.4,610.03,729.6,610.05S736,610.1,739.2,610.18S745.61,610.35,748.8,610.5S755.21,610.81,758.4,611.03S764.83,611.49,768,611.78S774.44,612.4,777.6,612.75S784.06,613.52,787.2,613.94S793.68,614.86,796.8,615.35S803.3,616.4,806.4,616.94S812.92,618.13,816,618.73S822.53,620.03,825.6,620.67S832.15,622.07,835.2,622.75S841.77,624.25,844.8,624.96S851.38,626.53,854.4,627.26S860.99,628.89,864,629.64S870.59,631.3,873.6,632.07S880.2,633.75,883.2,634.52S889.79,636.21,892.8,636.97S899.21,639.2,902.4,639.4S908.9,638.78,912,638.21S918.57,636.61,921.6,635.89S928.16,634.35,931.2,633.66S937.74,632.2,940.8,631.54S947.32,630.16,950.4,629.55S958.46,627.99,960,627.7" style="fill: none; stroke: blue; stroke-width: 6;"></path>
    </g>
   </svg>
   <g>
    <g transform="translate(0,640)">
     <path d="M0,0h960M0,-24V0M19,-12V0M38,-12V0M58,-12V0M77,-12V0M96,-24V0M115,-12V0M134,-12V0M154,-12V0M173,-12V0M192,-24V0M211,-12V0M230,-12V0M250,-12V0M269,-12V0M288,-24V0M307,-12V0M326,-12V0M346,-12V0M365,-12V0M384,-24V0M403,-12V0M422,-12V0M442,-12V0M461,-12V0M480,-24V0M499,-12V0M518,-12V0M538,-12V0M557,-12V0M576,-24V0M595,-12V0M614,-12V0M634,-12V0M653,-12V0M672,-24V0M691,-12V0M710,-12V0M730,-12V0M749,-12V0M768,-24V0M787,-12V0M806,-12V0M826,-12V0M845,-12V0M864,-24V0M883,-12V0M902,-12V0M922,-12V0M941,-12V0M960,-24V0" style="stroke: black; stroke-width: 1;"></path>
     <g font-family="Arial" font-size="28" space="preserve" fill="black" text-anchor="middle">
      <text dy=".8em" transform="translate(0,6)">
       0
      </text>
      <text dy=".8em" transform="translate(96,6)">
       1
      </text>
      <text dy=".8em" transform="translate(192,6)">
       2
      </text>
      <text dy=".8em" transform="translate(288,6)">
       3
      </text>
      <text dy=".8em" transform="translate(384,6)">
       4
      </text>
      <text dy=".8em" transform="translate(480,6)">
       5
      </text>
      <text dy=".8em" transform="translate(576,6)">
       6
      </text>
      <text dy=".8em" transform="translate(672,6)">
       7
      </text>
      <text dy=".8em" transform="translate(768,6)">
       8
      </text>
      <text dy=".8em" transform="translate(864,6)">
       9
      </text>
      <text dy=".8em" transform="translate(960,6)">
       10
      </text>
     </g>
    </g>
    <g>
     <path d="M0,0v640M36,640H0M18,622H0M18,604H0M18,587H0M36,569H0M18,551H0M18,533H0M18,515H0M36,497H0M18,480H0M18,462H0M18,444H0M36,426H0M18,408H0M18,390H0M18,373H0M36,355H0M18,337H0M18,319H0M18,301H0M36,284H0M18,266H0M18,248H0M18,230H0M36,212H0M18,194H0M18,177H0M18,159H0M36,141H0M18,123H0M18,105H0M18,88H0M36,70H0M18,52H0M18,34H0M18,16H0" style="stroke: black; stroke-width: 1;"></path>
     <g font-family="Arial" font-size="28" space="preserve" fill="black" text-anchor="end">
      <text dy=".4em" transform="translate(-4,640)">
       0
      </text>
      <text dy=".4em" transform="translate(-4,569)">
       20
      </text>
      <text dy=".4em" transform="translate(-4,497)">
       40
      </text>
      <text dy=".4em" transform="translate(-4,426)">
       60
      </text>
      <text dy=".4em" transform="translate(-4,355)">
       80
      </text>
      <text dy=".4em" transform="translate(-4,284)">
       100
      </text>
      <text dy=".4em" transform="translate(-4,212)">
       120
      </text>
      <text dy=".4em" transform="translate(-4,141)">
       140
      </text>
      <text dy=".4em" transform="translate(-4,70)">
       160
      </text>
     </g>
    </g>
   </g>
  </g>
  <g transform="translate(936,52)" font-family="Arial" font-size="25" space="preserve" fill="black">
   <path d="M0,0H240V128H0Z" style="fill: white; stroke: black; stroke-width: 1;"></path>
   <text text-anchor="middle" dy=".4em" transform="translate(120,16)">
    h1f
   </text>
   <text text-anchor="start" dy=".4em" transform="translate(12,48)">
    Entries
   </text>
   <text text-anchor="end" dy=".4em" transform="translate(228,48)">
    10000
   </text>
   <text text-anchor="start" dy=".4em" transform="translate(12,80)">
    Mean
   </text>
   <text text-anchor="end" dy=".4em" transform="translate(228,80)">
    3.646
   </text>
   <text text-anchor="start" dy=".4em" transform="translate(12,112)">
    Std Dev
   </text>
   <text text-anchor="end" dy=".4em" transform="translate(228,112)">
    1.840
   </text>
   <path d="M0,32h240" style="stroke: black; stroke-width: 1;"></path>
  </g>
  <g transform="translate(720,200)" font-family="Arial" font-size="10" space="preserve" font-weight="bold" fill="black" text-anchor="start">
   <path d="M4,4v280h360v-280z" style="fill: black; stroke: black; stroke-width: 1px;"></path>
   <path d="M0,0H360V280H0Z" style="fill: #dfbb88; stroke: black; stroke-width: 1;"></path>
   <text dy=".4em" transform="translate(18,11)">
    TCanvas * c1 = new TCanvas("c1","Canvas");
   </text>
   <text dy=".4em" transform="translate(18,32)">
    c1-&gt;SetGridx();
   </text>
   <text dy=".4em" transform="translate(18,54)">
    c1-&gt;SetGridy();
   </text>
   <text dy=".4em" transform="translate(18,75)">
    TFile * file = new TFile("fillrandom.root");
   </text>
   <text dy=".4em" transform="translate(18,97)">
    file-&gt;ls();
   </text>
   <text dy=".4em" transform="translate(18,118)">
    TF1 * sqroot = 0;
   </text>
   <text dy=".4em" transform="translate(18,140)">
    file-&gt;GetObject("sqroot",sqroot);
   </text>
   <text dy=".4em" transform="translate(18,162)">
    sqroot-&gt;Print();
   </text>
   <text dy=".4em" transform="translate(18,183)"></text>
   <text dy=".4em" transform="translate(18,205)">
    TH1 * h1f = 0;
   </text>
   <text dy=".4em" transform="translate(18,226)">
    file-&gt;GetObject("h1f",h1f);
   </text>
   <text dy=".4em" transform="translate(18,248)"></text>
   <text dy=".4em" transform="translate(18,269)">
    h1f-&gt;Fit("sqroot");
   </text>
  </g>
  <g transform="translate(371,4)" font-family="Arial" font-size="36" space="preserve">
   <text fill="black" text-anchor="middle" dy=".4em" transform="translate(229,22)">
    Test random numbers
   </text>
  </g>
 </g>
</svg>
